X: 1
T: JC's Hambo #2
C: John Chambers (July 1975)
M: 3/4
L: 1/8
K: Am
|: "Am"a2 e>c AB/c/ | "Dm"d2 d>e f2 | "E7"e>f e>d c>B |1,3 "Am"c>d c>B Ac/e/ :|2,4 "Am"A2 A4 :|
B/A/ \
|: "G7"G2 G>A B{cB}A/B/ | "C"c2 c>d e2 \
|1,3 "G7"f>e d>f e>d | "C"e>f e>d cB/A/ \
:|2,4 "Dm"d>f e>d "E7"c>B | "Am"A2 A4 :|
